icons/Home-2.svg

<svg width="24" height="24" viewBox="0 0 24 24" fill="none" xmlns="http://www.w3.org/2000/svg">
<g id="Home-2">
<path id="Vector" d="M10 19.9H7.5C6.70435 19.9 5.94129 19.5839 5.37868 19.0213C4.81607 18.4587 4.5 17.6957 4.5 16.9V8.9L10.5 4.9" stroke="#00153F" stroke-width="1.5" stroke-linejoin="round"/>
<path id="Vector_2" d="M13.5 4.9L19.5 8.9V16.9C19.5 17.6957 19.1839 18.4587 18.6213 19.0213C18.0587 19.5839 17.2956 19.9 16.5 19.9H14" stroke="#00153F" stroke-width="1.5" stroke-linejoin="round"/>
<path id="Vector_3" d="M21 9.9L19.5 8.9L13.5 4.9L12.55 4.27C12.3867 4.16247 12.1955 4.10516 12 4.10516C11.8045 4.10516 11.6133 4.16247 11.45 4.27L10.5 4.9L4.5 8.9L3 9.9" stroke="#00153F" stroke-width="1.5" stroke-linecap="round" stroke-linejoin="round"/>
<path id="Vector_4" d="M14 19.9V15.9C14 15.3696 13.7893 14.8609 13.4142 14.4858C13.0391 14.1107 12.5304 13.9 12 13.9C11.4696 13.9 10.9609 14.1107 10.5858 14.4858C10.2107 14.8609 10 15.3696 10 15.9V19.9" stroke="#00153F" stroke-width="1.5" stroke-linecap="round" stroke-linejoin="round"/>
</g>
</svg>

<svg xmlns="http://www.w3.org/2000/svg" fill="none" viewBox="0 0 24 24"><g stroke="currentColor" stroke-linejoin="round" stroke-width="1.5"><path d="M10 19.9H7.5a3 3 0 0 1-3-3v-8l6-4m3 0 6 4v8a3 3 0 0 1-3 3H14"/><path stroke-linecap="round" d="m21 9.9-1.5-1-6-4-.95-.63a1 1 0 0 0-1.1 0l-.95.63-6 4-1.5 1m11 10v-4a2 2 0 0 0-4 0v4"/></g></svg>
